X:25
T:Lady Binney's Lilt
% Always truncates the last note at 1/4=80 (ok at 60)
Z:Jack Campin - http://www.campin.me.uk
S:Blaikie MS (NLS MS.1578) p10, Blaikie #24
M:2/4
L:1/8
V:1 midi program 1 74
V:2 midi program 1 46 bass middle = d transpose -24
Q:1/4=80
K:Eb
[V:1]  e|BG````FE   |B2       B,C|E```G````FE |F2
[V:2]  z|E2    e2   |b2       a2 |g```e````de |B2
%
[V:1] e2|BG````FE   |B2       B,C|E/F/G/E/ F>E|E3||
[V:2] z2|E2    e2   |b2       a2 |g```e    Be |e3||
%
[V:1]  E|F/G/B Bc/B/|c/B/c/d/ fg |fe```````cB |c2
[V:2]  z|B2    b2   |a2       fe |G2       AG |A2
%
[V:1] e2|BG````FE   |B2       B,C|E/F/G/E/ F>E|E3|]
[V:2] a2|ge````de   |B2       a2 |g```e    Be |e3|]
W:Transcription (c) Jack Campin 2009, no mirroring or republication without permission

